X:38
T:I've Seen as Good as You Muped Below the Covering
M:9/8
L:1/8
S:George Skene's Music Book 1715
O:NLS Adv. MS 5.2.21#1b
B:SOITD
Z:ps
K:GDorian
G>AG B2f ge/f/g|G>AG B2f cAF|G>AG B2f ge/f/g|f3F>G/A/B/ cAF||/
f2d dB/c/d dB/c/d|f2d dB/c/d cFc|f2d dB/c/d dB/c/d|f3 F>G/A/B/ cAF||

